resources/svg/deviantart.svg

<svg viewBox="0 0 1200 1200"><path stroke="currentColor" stroke-width="5.851" d="M436.084 351.603h135.93V848.04l-569.089.357c4.97-138.378 79.926-332.443 433.159-378.596l1.73 53.189c-160.578 23.664-216.349 118.607-244.039 236.4h248.219l-5.91-407.787h0zm198.83 219.814l-2.09 275.938l564.162-.127c5.427-276.043-240.012-401.035-625.802-394.913v55.371c171.055-4.427 385.215 1.916 444.017 249.694l-252.828-2.09V581.863c-45.272-13.217-84.276-13.447-127.459-10.446h0z" fill="currentColor"/></svg>

<svg xmlns="http://www.w3.org/2000/svg" docname="deviantart.svg" version="0.48.4 r9939" x="0px" y="0px" viewBox="0 0 1200 1200" enable-background="new 0 0 1200 1200" xml:space="preserve" fill="currentColor"><path id="path5421" connector-curvature="0" stroke="#000000" stroke-width="5.8506" d="M436.084,351.603h135.93v496.437 L2.925,848.397c4.97-138.378,79.926-332.443,433.159-378.596l1.73,53.189C277.236,546.654,221.465,641.597,193.775,759.39h248.219 L436.084,351.603L436.084,351.603z M634.914,571.417l-2.09,275.938l564.162-0.127c5.427-276.043-240.012-401.035-625.802-394.913 v55.371c171.055-4.427,385.215,1.916,444.017,249.694l-252.828-2.09V581.863C717.101,568.646,678.097,568.416,634.914,571.417 L634.914,571.417z"/></svg>
